frontend/public/svg/gender symbols/transgender.svg

<svg width="105" height="101" viewBox="0 0 105 101" fill="none" xmlns="http://www.w3.org/2000/svg">
<g clip-path="url(#clip0)">
<path d="M64.5065 30.3728L70.4974 24.7282C69.4046 23.3374 68.4365 22.1614 67.532 20.9386C66.7359 19.8622 65.655 18.8213 65.3563 17.6031C65.0717 16.3423 65.2832 15.0202 65.947 13.9112C66.858 12.6175 68.5651 12.6055 69.908 13.4804C71.2745 14.4538 72.5852 15.5031 73.8342 16.623C74.5122 17.1836 75.1633 17.777 75.7625 18.2988L85.8242 7.87019C85.1304 7.83278 83.9779 7.74929 82.8241 7.70991C80.0202 7.61409 77.2045 7.66095 74.4144 7.41351C74.018 7.39467 73.6294 7.29609 73.2724 7.1238C72.9147 6.95149 72.5957 6.70905 72.3338 6.41071C72.0726 6.11237 71.8737 5.76432 71.749 5.38743C71.625 5.01054 71.5784 4.61248 71.6112 4.21705C71.6374 3.47519 71.9361 2.76911 72.4506 2.23361C72.9645 1.69811 73.6576 1.37082 74.398 1.31416C75.4002 1.20267 76.409 1.15868 77.4171 1.18276C83.6983 1.04821 89.9801 0.944374 96.2606 0.77832C99.4183 0.694965 101.09 1.66651 101.613 4.64103C102.564 10.0479 103.365 15.4803 104.017 20.9379C104.104 21.5268 104.072 22.127 103.922 22.7032C103.773 23.2793 103.509 23.8195 103.146 24.2918C102.784 24.7639 102.33 25.1587 101.813 25.4522C101.295 25.7457 100.723 25.9319 100.132 26.0002C97.8568 26.1807 95.9449 24.2558 95.6843 21.4545C95.6233 20.7923 95.792 20.1121 95.7743 19.4426C95.746 16.5875 95.5314 13.7374 95.1324 10.9102C90.1908 14.8771 85.8248 19.2793 80.9778 24.1959C82.1953 25.1463 83.4095 25.8367 84.2706 26.837C85.2499 27.9028 86.0027 29.1568 86.4818 30.5224C86.7109 31.2202 86.7378 31.9682 86.5593 32.6805C86.3814 33.3929 86.006 34.0406 85.4757 34.5486C84.9453 35.0567 84.2824 35.4045 83.5631 35.552C82.8437 35.6996 82.0975 35.6408 81.4103 35.3825C79.9939 34.8837 78.7449 33.8042 77.5464 32.8322C76.6985 32.0238 75.9168 31.1487 75.2079 30.2158L69.5929 36.593C69.5824 36.5753 69.9375 37.2328 70.3477 37.8537C79.2536 51.3362 80.3674 65.6351 74.5988 80.5333C71.2351 89.2186 64.956 94.9865 56.0299 97.7569C47.545 100.489 38.5088 101.041 29.7545 99.3616C15.3341 96.5341 6.86736 87.4426 3.13279 73.5302C-0.0300986 61.7477 1.45917 50.6292 7.91687 40.2499C8.8473 38.7142 9.98184 37.3117 11.2893 36.0808C17.1548 30.6657 24.3855 26.9524 32.2039 25.3401C39.4762 23.8243 47.0109 24.135 54.1336 26.2444C57.6417 27.223 60.9445 28.9289 64.5065 30.3728ZM39.3391 93.8235C43.1366 93.1619 47.716 92.6224 52.1588 91.5309C59.7119 89.6754 64.6116 84.7647 67.2229 77.4695C69.9927 69.7333 70.5118 61.8001 68.3 53.9654C65.2729 43.2415 59.1079 35.4567 47.3109 33.2651C37.9791 31.5324 29.1016 31.7017 20.81 36.999C16.9693 39.353 13.8371 42.7023 11.7453 46.6918C6.64556 56.5139 7.37363 66.4194 11.122 76.3426C14.4693 85.1985 20.8547 90.7262 30.1878 92.6197C32.9241 93.1783 35.7364 93.3634 39.3391 93.8235Z" fill="black"/>
</g>
<defs>
<clipPath id="clip0">
<rect width="103.701" height="100.42" fill="white" transform="translate(0.926758 0.471191)"/>
</clipPath>
</defs>
</svg>

<svg xmlns="http://www.w3.org/2000/svg" width="105" height="101" fill="none" viewBox="0 0 105 101"><g clip-path="url(#a)"><path fill="#000" d="m64.507 30.373 5.99-5.645c-1.092-1.39-2.06-2.567-2.965-3.79-.796-1.076-1.877-2.117-2.176-3.335a5.03 5.03 0 0 1 .591-3.692c.911-1.293 2.618-1.306 3.961-.43a45 45 0 0 1 3.926 3.142c.678.56 1.33 1.154 1.928 1.676L85.825 7.87c-.694-.037-1.846-.12-3-.16-2.804-.096-5.62-.05-8.41-.296a2.95 2.95 0 0 1-2.665-2.027 3 3 0 0 1-.138-1.17 3.016 3.016 0 0 1 2.787-2.903 22.5 22.5 0 0 1 3.02-.131C83.697 1.048 89.98.944 96.26.778c3.157-.083 4.829.889 5.352 3.863a298 298 0 0 1 2.404 16.297 4.43 4.43 0 0 1-.871 3.354A4.45 4.45 0 0 1 100.132 26c-2.275.18-4.187-1.744-4.448-4.546-.06-.662.108-1.342.09-2.011a66 66 0 0 0-.642-8.533c-4.941 3.967-9.307 8.37-14.154 13.286 1.217.95 2.432 1.64 3.293 2.641a10.7 10.7 0 0 1 2.21 3.685 3.893 3.893 0 0 1-5.071 4.86c-1.416-.498-2.665-1.578-3.864-2.55a22 22 0 0 1-2.338-2.616l-5.615 6.377c-.01-.018.344.64.755 1.26 8.906 13.483 10.02 27.782 4.25 42.68-3.363 8.686-9.642 14.454-18.568 17.224a53.1 53.1 0 0 1-26.275 1.605C15.335 96.534 6.866 87.442 3.133 73.53-.03 61.748 1.459 50.63 7.917 40.25a20 20 0 0 1 3.372-4.17 43.9 43.9 0 0 1 20.915-10.74 44.94 44.94 0 0 1 21.93.904c3.508.979 6.81 2.685 10.373 4.129m-25.168 63.45c3.798-.661 8.377-1.2 12.82-2.292 7.553-1.856 12.453-6.766 15.064-14.062 2.77-7.736 3.289-15.669 1.077-23.504-3.027-10.724-9.192-18.508-20.99-20.7-9.33-1.733-18.208-1.563-26.5 3.734a24.97 24.97 0 0 0-9.065 9.693c-5.1 9.822-4.371 19.727-.623 29.65 3.347 8.856 9.733 14.384 19.066 16.278 2.736.558 5.548.743 9.151 1.203"/></g><defs><clipPath id="a"><path fill="#fff" d="M.927.471h103.7v100.42H.928z"/></clipPath></defs></svg>
